telier/img/about-mail.svg

<svg width="20" height="20" viewBox="0 0 20 20" fill="none" xmlns="http://www.w3.org/2000/svg">
<circle cx="10" cy="10.0001" r="10" fill="#0047FF"/>
<path fill-rule="evenodd" clip-rule="evenodd" d="M4 6.25006C4 5.55971 4.55964 5.00006 5.25 5.00006H15.25C15.9404 5.00006 16.5 5.55971 16.5 6.25006V13.7501C16.5 14.4404 15.9404 15.0001 15.25 15.0001H5.25C4.55964 15.0001 4 14.4404 4 13.7501V6.25006ZM6.19912 6.25006L10.25 9.79458L14.3009 6.25006H6.19912ZM15.25 7.08054L10.6616 11.0954C10.4259 11.3016 10.0741 11.3016 9.83843 11.0954L5.25 7.08054V13.7501H15.25V7.08054Z" fill="white"/>
</svg>

<svg width="20" height="20" fill="none" xmlns="http://www.w3.org/2000/svg"><circle cx="10" cy="10" r="10" fill="#0047FF"/><path fill-rule="evenodd" clip-rule="evenodd" d="M4 6.25C4 5.56 4.56 5 5.25 5h10c.69 0 1.25.56 1.25 1.25v7.5c0 .69-.56 1.25-1.25 1.25h-10C4.56 15 4 14.44 4 13.75v-7.5zm2.2 0l4.05 3.545L14.3 6.25H6.2zm9.05.83l-4.588 4.015a.625.625 0 01-.824 0L5.25 7.081v6.67h10V7.08z" fill="#fff"/></svg>
